X:77
T:score166
L:1/8
Q:1/4=96
M:6/8
I:linebreak $
K:A
!p! e3- e>.d .c | d3- d>.F .G | A2 A A>.B .c | (c B2) B>.c .d |$ e3- e>.d .c | d3- d>.F .G | %6
 A2 A (Ac).B | A2 z z2 z |] %8
